X:2755
T:Cat needs feeding, The
S:Steve Thorp
R:Jig
O:England
M:6/8
C:Steve Thorp
A:Leeds
K:Em
B | BeB AeA | GeG E3 | B2g fec | BGg fec |\
BcA BGA | FGE F3 | BGg fec | BfF E2 :|*
|:F | GeG FGE | gfe c2e | AeA GAF | fec B2f | \
fBf eBe | cBc B2g | gBg feB | c3 c2c |\
BcA BGA | FGE F3 | BGg fec | BfF E2 :|**
W:Copyright Steve Thorp


